X: 270
T:A Pinch Of Saltire
% Nottingham Music Database
S:Dennis Salter, via Phil Rowe
M:6/8
K:A
e|"A"A2A ABc|"Bm"dB2 "E7"e2d|"A"c2A AGA|"C"=GEE "E7"^GEE|
"A"A2A ABc|"Bm"dfe "E7"B2d|"A"cBA "G"B=G2|"A"A3 -A2:|
c|"D"d2d def|"A"e2d c3|"Bm"d2c "E7"B3|"A7"cd^d ecA|"D"d2d def|"A"e2d c3|
"B7"BaB gBf|"E7"efd cdB|"A"ecA "A7"ecA|"D"dff "E7"egg|"A"aec aec|
"C"=ge=c "E7"^ged|"A"c2c cBA|"D"df2 "E7"eg2|"A"ace "E7"efg|"A"a3 -a2||<end>
<start>
